X: 40971
T: Trip To Dingle, The
R: polka
M: 2/4
K: Gmajor
|:GA/B/ dd|de B2-|Bg ed|e/g/e/d/ BG|
E2 DE|GA Bd|de BA|G2 G2:|
|:e2 de|ga b2|AG/A/ BA|1 AG EG|
e2 de|ga b[dd']|[dd'][ee'] bg|a2 ag:|
[2 AG ED|E2 DE|GA Bd|de BA|G2 G2||

